svg/Octicons/cloud-download.svg

<svg xmlns="http://www.w3.org/2000/svg" viewBox="0 0 1024 1024"><path d="m832 320c-8.75 0-17.12 1.406-25.625 2.562-48.75-114.31-162.25-194.56-294.37-194.56-132.16 0-245.56 80.25-294.41 194.56-8.438-1.156-16.813-2.562-25.594-2.562-106.06 0-192 85.938-192 192s85.938 192 192 192c20.531 0 39.875-4.25 58.37-10.375 34.09 37.75 80.937 63.12 133.62 70.875v-65.25c-49.844-10.375-91.59-42.812-112.62-87.87-21.844 17.625-49.16 28.625-79.37 28.625-70.66 0-128-57.37-128-128 0-70.66 57.34-128 128-128 25.281 0 48.625 7.562 68.41 20.09 20.938-120.31 125.19-212.09 251.59-212.09 126.5 0 229.75 92.22 250.5 212.75 20-13 43.875-20.75 69.5-20.75 70.62 0 128 57.34 128 128 0 70.62-57.37 128-128 128-10.25 0-20-1.5-29.625-3.75-28.937 40.875-76.44 67.75-130.37 67.75-11.06 0-21.625-1.625-32-4v64.938c10.438 1.688 21.06 3.062 32 3.062 61.19 0 116.5-24.625 156.94-64.44 1.062.063 1.937.438 3.062.438 106.06 0 192-85.938 192-192s-85.938-192-192-192m-256 192h-128v320h-128l192 192 192-192h-128v-320"/></svg>

<svg height="1024" width="1024" xmlns="http://www.w3.org/2000/svg">
  <path d="M832 320c-8.75 0-17.125 1.406-25.625 2.562C757.625 208.25 644.125 128 512 128c-132.156 0-245.562 80.25-294.406 194.562C209.156 321.406 200.781 320 192 320 85.938 320 0 405.938 0 512s85.938 192 192 192c20.531 0 39.875-4.25 58.375-10.375C284.469 731.375 331.312 756.75 384 764.5v-65.25c-49.844-10.375-91.594-42.812-112.625-87.875C249.531 629 222.219 640 192 640c-70.656 0-128-57.375-128-128 0-70.656 57.344-128 128-128 25.281 0 48.625 7.562 68.406 20.094C281.344 283.78099999999995 385.594 192 512 192c126.5 0 229.75 92.219 250.5 212.75 20-13 43.875-20.75 69.5-20.75 70.625 0 128 57.344 128 128 0 70.625-57.375 128-128 128-10.25 0-20-1.5-29.625-3.75C773.438 677.125 725.938 704 672 704c-11.062 0-21.625-1.625-32-4v64.938c10.438 1.688 21.062 3.062 32 3.062 61.188 0 116.5-24.625 156.938-64.438C830 703.625 830.875 704 832 704c106.062 0 192-85.938 192-192S938.062 320 832 320zM576 512H448v320H320l192 192 192-192H576V512z" />
</svg>
